X:208
T:I Am a Pilgram
C:Traditional
N: Arr. Mike Stangeland
R:bluegrass
L:1/8
Q:1/4=125
M:4/4
K:G
z8 | "G"zG, DG, [E2G,2] [G2G,2] | {^G}"D"A[dA] [dA][dA] [dA][dA] [d2A2] | zD Bd BG ED | 
"G"[BGG,][BG] [BG][BG] [B2G2] cB | A2 {^A}B2 g=A =fG | "C"eE EG c2 [ecG][ecG] | 
[ecG]E G^A (3cAc GE | "G"GG G2 (3=FED (3^A,B,D | G,2 G2 DB, DE | GG [BG][BG] [BG][BG] [B2G2G,2] | 
"G7"GB [g2d2] [g2d2] [g2d2] | "C"[g2d2] [g2c2] (3cdc G2 | cD G=F DF GD | "G"(3G^AG AD Fd Ec | 
"D"D2 (3DEG BA GE | "G"D2 (3B,C^C D2 (3D=CB, | "G"G,2 [g6d6D6G,6] | 


